docs/assets/images/calc-svg/chamfer-09.svg

<svg width="76" height="44" viewBox="0 0 76 44" fill="none" xmlns="http://www.w3.org/2000/svg">
<path d="M74.8889 25.2083L33.7639 43L1.68056 35.125L1 12.9583L45.5278 1L62.1528 3.42219V8.58333C69.6051 10.29 74.8889 16.9206 74.8889 24.5658V25.2083Z" fill="#D2D2D2"/>
<path d="M33.7639 43L74.8889 25.2083V24.5658C74.8889 16.9206 69.6051 10.29 62.1528 8.58333M33.7639 43L1.68056 35.125L1 12.9583M33.7639 43V37.9994C33.7639 31.0086 29.1171 24.8699 22.3889 22.9722M1 12.9583L45.5278 1L62.1528 3.42219M1 12.9583L22.3889 17.0838M22.3889 17.0838V22.9722M22.3889 17.0838L62.1528 3.42219M22.3889 22.9722L62.1528 8.58333M62.1528 8.58333V3.42219" stroke="#838383"/>
</svg>

<svg width="76" height="44" fill="none" xmlns="http://www.w3.org/2000/svg"><path d="M74.889 25.208L33.764 43 1.68 35.125 1 12.958 45.528 1l16.625 2.422v5.161a16.396 16.396 0 0112.736 15.983v.642z" fill="#D2D2D2"/><path d="M33.764 43l41.125-17.792v-.642A16.396 16.396 0 0062.153 8.583M33.763 43L1.682 35.125 1 12.958M33.764 43v-5c0-6.991-4.647-13.13-11.375-15.028M1 12.958L45.528 1l16.625 2.422M1 12.958l21.389 4.126m0 0v5.888m0-5.888L62.153 3.422m-39.764 19.55L62.153 8.583m0 0v-5.16" stroke="#838383"/></svg>
